X: 10943
T: UNDERHAND HORNPIPE
C: James Hill
R: hornpipe
B: K\"ohler's Violin Repository, v.1, 1885 p.94 #3
F: http://www.archive.org/details/klersviolinrepos01edin
Z: 2012 John Chambers <jc:trillian.mit.edu>
M: C|
L: 1/8
K: Bb
u(B>c) |\
(d>B)F>B (D>F)B>F | d>(BA>B) F2(c>d) | (e>c)A>F (E>A)c>e | g>(f=e>f) d2(B>c) |
(d>B)F>B (D>F)B>F | d>(BA>B) F2(c>d) | (e>g)e>c (A>e)c>A | c2B2B2 :|
|: ((3fga) |\
(b>f)d>B (F>B)d>f | b>fd>f B2(c>d) | (e>c)A>F (E>A)c>e | g>(f=e>f) d2((3fga) |
(b>f)d>f (B>f)d>f | b>fd>f B2(c>d) | e>(cA)>(F E)>(ec)>A | c2B2B2 :|

%%sep 2 1 500

